!!!COM: Bach, Johann Sebastian
!!!OPR: Joh. Seb. Bachs vierstimmige Choralgesänge
!!!XEN: Four-part Chorales
!!!OTL: 20. Befiehl du deine Wege
!!!SCT: BWV 272
!!!SCA: Thematisch-systematisches Verzeichnis der musikalischen Werke Johann Sebastian Bach: Bach-Werke-Verzeichnis (Schmieder)
!!!YOR: Bach Gesellschaft Edition xxxix
!!!ENC: Steven Rasmussen
!!!CDT: 1685/3//-1750/7/28/
!!!OCY: Deutschland
!!!YEC: Copyright (c) 1994, 2000 Center for Computer Assisted Research in the Humanities
!!!YEM: Rights to all derivative editions reserved
!!!YEN: United States of America
**kern	**kern	**kern	**kern	**silbe
*I:[BASSO]	*I:[TENORE]	*I:[ALTO]	*I:[SOPRANO]	*I:[SOPRANO]
*>[A,A,B]	*>[A,A,B]	*>[A,A,B]	*>[A,A,B]	*
*>A	*>A	*>A	*>A	*
*clefF4	*clefGv2	*clefG2	*clefG2	*
*k[b-]	*k[b-]	*k[b-]	*k[b-]	*
*F:	*F:	*F:	*F:	*
*M4/4	*M4/4	*M4/4	*M4/4	*
8FL	8AL	8dL	8dL	Be-der
8EJ	8GJ	8c#J	8eJ	.
=1	=1	=1	=1	=1
4.D	4A	4d	4f	-fiehlal-
.	4G	4B-	4e	du-ler-
8C#	.	.	.	.
8DL	4F	4A	4f	dei--treu-
8CnJ	.	.	.	.
8BB-L	8FL	8dL	4g	-ne-sten
8CJ	8EJ	8cJ	.	.
=2	=2	=2	=2	=2
2FF	2F	2c	2a	We-Pfle-
4FF;	4F;	4c;	4a;	-ge,-ge
4E	4G	4c	4cc	unddes,
=3	=3	=3	=3	=3
4D	4G#	4f	4bn	wasder
4D#	4c	4f#	4a	deinden
4E	8BnL	4e	4a	Her-Him-
.	8cJ	.	.	.
4EE	4d	4e	4g#	-ze-mel
=4	=4	=4	=4	=4
2.AA;	2.c;	2.e;	2.a;	krÃ¤nkt,lenkt.
=:|!	=:|!	=:|!	=:|!	=:|!
*>B	*>B	*>B	*>B	*
4A	4c	8eL	4a	Der
.	.	8f#J	.	.
=5	=5	=5	=5	=5
4A	4d	4g#	4bn	Wol-
8AL	4e	4a	4cc	-ken,
8GJ	.	.	.	.
4F#	4d	4a	8ddL	Luft
.	.	.	8ccJ	.
8GL	4d	4gn	4b	und
8FnJ	.	.	.	.
=6	=6	=6	=6	=6
8EL	8cL	4g	4.cc	Win-
8C	8e	.	.	.
8D	8d	8fL	.	.
8EJ	8cJ	8gJ	8b-	.
4F;	4c;	4f;	4a;	-den
4FF	4c	8fL	4a	gibt
.	.	8e-J	.	.
=7	=7	=7	=7	=7
4BB-	4B-	4d	4g	We-
4BBn	4A-	4d	4f	-ge,
4C	4.G	4c	4f	Lauf
4CC	.	4c	4e	und
.	16AnLL	.	.	.
.	16B-JJ	.	.	.
=8	=8	=8	=8	=8
2.FF;	2.A;	2.c;	2.f;	Bahn,
4C#	4A	4e	8aL	der
.	.	.	8gJ	.
=9	=9	=9	=9	=9
8DL	4A	4.f	4f	wird
8CJ	.	.	.	.
8BB-L	8dL	.	4g	auch
8CJ	8cJ	8e	.	.
8FFL	4c	4.f	4a	We-
8AAJ	.	.	.	.
8BBnL	8dL	.	4g	-ge
8C#J	8eJ	8e	.	.
=10	=10	=10	=10	=10
8DL	8AL	8eL	2f	fin-
8BB-	8G#	[8dJ	.	.
8AA	8A	4d]	.	.
8GG#J	8BnJ	.	.	.
4AA;	4A;	4c#;	4e;	-den,
4D	4A	4d	4f	die
=11	=11	=11	=11	=11
4E	4G	8dL	4g	dein
.	.	8c#J	.	.
8FL	4A	4d	4f	Fuss
8GJ	.	.	.	.
4A	4.A	4d	4e	ge-
4AA	.	4c#	4e	-hen
.	8G	.	.	.
=12	=12	=12	=12	=12
2.D;	2.F;	2.A;	2.d;	kann.
==|!	==|!	==|!	==|!	==|!
*-	*-	*-	*-	*-
!!!RWG: Key is interpreted using the Humdrum key tool.
!!!END: 1994/05/09
!!!EMD: Converted from MuseData to Humdrum Dec 19, 2000, by Andreas Kornstaedt using muse2kern.
!!!EED: Craig Stuart Sapp
!!!EEV: 2024/03/31
!!!ONB: Some non-unicode characters
